local/share/icons/dracula-icons-main/24/actions/zoom.svg

<?xml version="1.0" encoding="UTF-8"?>
<svg xmlns="http://www.w3.org/2000/svg" xmlns:xlink="http://www.w3.org/1999/xlink" width="24" height="24" viewBox="0 0 24 24">
<path fill-rule="nonzero" fill="rgb(100%, 100%, 100%)" fill-opacity="1" d="M 6 4 C 4.890625 4 4 4.890625 4 6 L 4 7 L 5 7 L 5 6 C 5 5.445312 5.445312 5 6 5 L 7 5 L 7 4 Z M 12 4 L 10 6 L 14 6 Z M 17 4 L 17 5 L 18 5 C 18.554688 5 19 5.445312 19 6 L 19 7 L 20 7 L 20 6 C 20 4.890625 19.109375 4 18 4 Z M 6 10 L 4 12 L 6 14 Z M 18 10 L 18 14 L 20 12 Z M 4 17 L 4 18 C 4 19.109375 4.890625 20 6 20 L 7 20 L 7 19 L 6 19 C 5.445312 19 5 18.554688 5 18 L 5 17 Z M 19 17 L 19 18 C 19 18.554688 18.554688 19 18 19 L 17 19 L 17 20 L 18 20 C 19.109375 20 20 19.109375 20 18 L 20 17 Z M 10 18 L 12 20 L 14 18 Z M 10 18 "/>
</svg>

<svg width="24" height="24" version="1.1" viewBox="0 0 24 24" xmlns="http://www.w3.org/2000/svg">
 <defs>
  <style id="current-color-scheme" type="text/css">.ColorScheme-Text {
        color:#FFFFFF;
      }</style>
 </defs>
 <path class="ColorScheme-Text" d="m6 4c-1.108 0-2 0.892-2 2v1h1v-1c0-0.554 0.446-1 1-1h1v-1zm6 0-2 2h4zm5 0v1h1c0.554 0 1 0.446 1 1v1h1v-1c0-1.108-0.892-2-2-2zm-11 6-2 2 2 2zm12 0v4l2-2zm-14 7v1c0 1.108 0.892 2 2 2h1v-1h-1c-0.554 0-1-0.446-1-1v-1zm15 0v1c0 0.554-0.446 1-1 1h-1v1h1c1.108 0 2-0.892 2-2v-1zm-9 1 2 2 2-2z" fill="currentColor"/>
</svg>
